src/assets/duotone/Fatrows.svg

<?xml version="1.0" encoding="UTF-8"?>
<svg width="24" height="24" viewBox="0 0 24 24" xmlns="http://www.w3.org/2000/svg">
 <path d="m19.9 13.5h-15.8c-1.5 0-2.1 0.64-2.1 2.23v4.04c0 1.59 0.6 2.23 2.1 2.23h15.8c1.5 0 2.1-0.64 2.1-2.23v-4.04c0-1.59-0.6-2.23-2.1-2.23z"/>
 <path d="M12.9 2H4.1C2.6 2 2 2.64 2 4.23V8.27C2 9.86 2.6 10.5 4.1 10.5H12.9C14.4 10.5 15 9.86 15 8.27V4.23C15 2.64 14.4 2 12.9 2Z" opacity=".4"/>
</svg>

<svg width="24" height="24" viewBox="0 0 24 24"  xmlns="http://www.w3.org/2000/svg">
<path d="M19.9 13.5H4.1C2.6 13.5 2 14.14 2 15.73V19.77C2 21.36 2.6 22 4.1 22H19.9C21.4 22 22 21.36 22 19.77V15.73C22 14.14 21.4 13.5 19.9 13.5Z" />
<path opacity="0.4" d="M12.9 2H4.1C2.6 2 2 2.64 2 4.23V8.27C2 9.86 2.6 10.5 4.1 10.5H12.9C14.4 10.5 15 9.86 15 8.27V4.23C15 2.64 14.4 2 12.9 2Z" />
</svg>
